images/projects/sf-shortcuts.svg

<svg height="26.0376" width="25.3052" xmlns="http://www.w3.org/2000/svg"><path d="m0 0h25.3052v26.0376h-25.3052z" opacity="0"/><g fill="#fff" fill-opacity=".85"><path d="m9.11108 14.4754-6.47436 3.7009c-.04883.0244-.08545.061-.08545.122 0 .0611.03662.0855.08545.1221l9.28958 5.3101c.2075.1098.3784.1709.5493.1709s.3418-.0611.5371-.1709l9.2895-5.3101c.0611-.0366.0977-.061.0977-.1221 0-.061-.0366-.0976-.0977-.122l-6.4693-3.698 2.0408-1.1848 5.6981 3.3081c.9887.5859 1.3794 1.0254 1.3794 1.6967 0 .6714-.3907 1.1109-1.3794 1.6846l-9.5459 5.5542c-.586.3418-1.062.5005-1.5503.5005-.5005 0-.9644-.1587-1.5503-.5005l-9.55811-5.5542c-.988772-.5737-1.36719-1.0132-1.36719-1.6846 0-.6713.378418-1.1108 1.36719-1.6967l5.70539-3.3081z"/><path d="m12.4756 16.0278c.4883 0 .9643-.1587 1.5503-.5005l9.5459-5.54195c.9887-.58594 1.3794-1.02539 1.3794-1.69678 0-.67138-.3907-1.11084-1.3794-1.68457l-9.5459-5.5542c-.586-.341792-1.062-.500484-1.5503-.500484-.5005 0-.9644.158692-1.5503.500484l-9.55811 5.5542c-.988772.57373-1.36719 1.01319-1.36719 1.68457 0 .67139.378418 1.11084 1.36719 1.69678l9.55811 5.54195c.5859.3418 1.0498.5005 1.5503.5005z"/></g></svg>

<?xml version="1.0" encoding="UTF-8"?>
<!--Generator: Apple Native CoreSVG 232.5-->
<!DOCTYPE svg
PUBLIC "-//W3C//DTD SVG 1.1//EN"
       "http://www.w3.org/Graphics/SVG/1.1/DTD/svg11.dtd">
<svg version="1.1" xmlns="http://www.w3.org/2000/svg" xmlns:xlink="http://www.w3.org/1999/xlink" width="25.3052" height="26.0376">
 <g>
  <rect height="26.0376" opacity="0" width="25.3052" x="0" y="0"/>
  <path d="M9.11108 14.4754L2.63672 18.1763C2.58789 18.2007 2.55127 18.2373 2.55127 18.2983C2.55127 18.3594 2.58789 18.3838 2.63672 18.4204L11.9263 23.7305C12.1338 23.8403 12.3047 23.9014 12.4756 23.9014C12.6465 23.9014 12.8174 23.8403 13.0127 23.7305L22.3022 18.4204C22.3633 18.3838 22.3999 18.3594 22.3999 18.2983C22.3999 18.2373 22.3633 18.2007 22.3022 18.1763L15.8329 14.4783L17.8737 13.2935L23.5718 16.6016C24.5605 17.1875 24.9512 17.627 24.9512 18.2983C24.9512 18.9697 24.5605 19.4092 23.5718 19.9829L14.0259 25.5371C13.4399 25.8789 12.9639 26.0376 12.4756 26.0376C11.9751 26.0376 11.5112 25.8789 10.9253 25.5371L1.36719 19.9829C0.378418 19.4092 0 18.9697 0 18.2983C0 17.627 0.378418 17.1875 1.36719 16.6016L7.07258 13.2935Z" fill="#fff" fill-opacity="0.85"/>
  <path d="M12.4756 16.0278C12.9639 16.0278 13.4399 15.8691 14.0259 15.5273L23.5718 9.98535C24.5605 9.39941 24.9512 8.95996 24.9512 8.28857C24.9512 7.61719 24.5605 7.17773 23.5718 6.604L14.0259 1.0498C13.4399 0.708008 12.9639 0.549316 12.4756 0.549316C11.9751 0.549316 11.5112 0.708008 10.9253 1.0498L1.36719 6.604C0.378418 7.17773 0 7.61719 0 8.28857C0 8.95996 0.378418 9.39941 1.36719 9.98535L10.9253 15.5273C11.5112 15.8691 11.9751 16.0278 12.4756 16.0278Z" fill="#fff" fill-opacity="0.85"/>
 </g>
</svg>
